src/icons/svgs/16/meh.svg

<svg width="16" height="16" viewBox="0 0 16 16" fill="none" xmlns="http://www.w3.org/2000/svg">
<path d="M8 1C4.13359 1 1 4.13359 1 8C1 11.8664 4.13359 15 8 15C11.8664 15 15 11.8664 15 8C15 4.13359 11.8664 1 8 1ZM5.78789 5.8125C6.2716 5.8125 6.66344 6.20352 6.66344 6.6875C6.66344 7.17148 6.2716 7.5625 5.78789 7.5625C5.30418 7.5625 4.91316 7.17148 4.91316 6.6875C4.91316 6.20352 5.32852 5.8125 5.78789 5.8125ZM10.625 11.0625H5.35039C4.77098 11.0625 4.77098 10.1875 5.35039 10.1875H10.6004C11.2047 10.1875 11.2047 11.0625 10.625 11.0625ZM10.1875 7.5625C9.70379 7.5625 9.31195 7.17148 9.31195 6.6875C9.31195 6.20352 9.70379 5.8125 10.1875 5.8125C10.6712 5.8125 11.0622 6.20352 11.0622 6.6875C11.0622 7.17148 10.6715 7.5625 10.1875 7.5625Z" fill="black"/>
</svg>

<svg width="16" height="16" viewBox="0 0 16 16" xmlns="http://www.w3.org/2000/svg">
    <path d="M8 1a7 7 0 0 0-7 7 7 7 0 0 0 7 7 7 7 0 0 0 7-7 7 7 0 0 0-7-7zM5.788 5.813a.875.875 0 1 1-.875.875.89.89 0 0 1 .875-.875zm4.837 5.25H5.35c-.579 0-.579-.876 0-.876h5.25c.605 0 .605.876.025.876zm-.438-3.5a.875.875 0 1 1-.001-1.75.875.875 0 0 1 .002 1.75z"/>
</svg>
